X: 29805
T: O'Carolan's Ramble To Cashel
R: waltz
M: 3/4
K: Bminor
(3ABc|dc de fe|d2 cd ec|B2 F2 AB|A4 dc|
BA GF ED|D2 DE FE|F2 B2 B2|B4||
Bc|d2 f2 f2|f2 e2 d2|cB AB cd|e2 d2 c2|
dc de fe|d2 ce dc|B2 F2 AB|A4||
Bc BA BA|FE FA Bc|dc de fe|d2 ce dc|B2 F2 AB|
A4 dc|BA GF A/G/F/E/|D2 DE FE|F2 BA Bc|
d2 ef ed|BA GF A/G/F/E/|D2 DE FE|F2 B2 B2|B4||

